!!!!SEGMENT: pl-kk--kk-i-7--055-002_goudimel-claude--missa-audi-filia-et-in-terra.krn
!!!cenid: 16xx:884
!!!COM: Goudimel, Claude
!!!COM-rismid: pe387526
!!!CDT: ~1514-1572/08
!!!CNT: French
!!!OTL: Missa Audi Filia – Et in terra
!!!PDT:
!!!AGN: Sacred; Mass
!!!SMS-siglum: PL-Kk
!!!SMS-shelfmark: Kk.I.7
!!!SMS-shelfwork: 055-002 M
!!!SMS-variant:
!!!SMS-altvar:
!!!NIFC-rismid: 300258132
!!!URL-scan: http://repozytorium.nifc.pl/skany/pl-kk-nut--i-7
!!!ONB-nifc: UWAGA: C (skan 0052-0054, s.97-100), A (0136-0137, s.93-95), T(0213-0214, s.88-91), B(0300-0301, s.87-89). Części Mszy: 1. Kyrie, 2. Et in terra, 3. Sanctus, 4. Agnus. „Agnus II" rozpisane na 5 głosów. Dodatkowy głoś zapisany w księdze T na stronie 91
**kern	**text	**kern	**text	**kern	**text	**kern	**text
*part5	*part5	*part3	*part3	*part2	*part2	*part1	*part1
*staff4	*staff4	*staff3	*staff3	*staff2	*staff2	*staff1	*staff1
*group1	*	*group1	*	*group1	*	*group1	*
*I"BASSVS.	*	*I"TENOR.	*	*I"ALTVS.	*	*I"CANTVS.	*
*I'B	*	*I'T	*	*I'A	*	*I'S	*
*clefF3	*	*clefC3	*	*clefC2	*	*clefG2	*
*k[b-]	*	*k[b-]	*	*k[b-]	*	*k[b-]	*
*M2/1	*	*M2/1	*	*M2/1	*	*M2/1	*
*met(C|)	*	*met(C|)	*	*met(C|)	*	*met(C|)	*
=1-	=1-	=1-	=1-	=1-	=1-	=1-	=1-
!LO:TX:t=P:problem:przy kluczu BB- B-	!	!LO:TX:b:t=Et in terra	!	!LO:TX:t=P:problem:przy kluczu b- B-	!	!LO:TX:t=P:problem:inicjał E przed kluczem	!
00r	.	00r	.	0r	.	0cc	Et
.	.	.	.	.	.	.	.
=2-	=2-	=2-	=2-	=2-	=2-	=2-	=2-
!	!	!	!	!LO:TX:t=P:problem:kreska pseudotaktowa	!	!	!
.	.	.	.	1r	.	1a	in
!	!	!	!	!LO:TX:t=P:problem:inicjał E przed kluczem	!	!	!
.	.	.	.	0g	Et	1.b-	ter-
=3-	=3-	=3-	=3-	=3-	=3-	=3-	=3-
00r	.	00r	.	.	.	.	.
.	.	.	.	.	.	2a/	-ra
!	!	!	!	!	!	!LO:TX:t=P:problem:kreska pseudotaktowa	!
.	.	.	.	1e	in	1g	pax
=4-	=4-	=4-	=4-	=4-	=4-	=4-	=4-
.	.	.	.	1.f	ter-	1r	.
.	.	.	.	.	.	1cc	ho-
.	.	.	.	2e/	-ra	.	.
=5-	=5-	=5-	=5-	=5-	=5-	=5-	=5-
!	!	!LO:TX:t=P:problem:kreska pseudotaktowa	!	!LO:TX:t=P:problem:kreska pseudotaktowa	!	!	!
00rA	.	00rf	.	1d	pax	1ff	-mi-
*	*	*	*	*	*	*2\right	*
.	.	.	.	1r	.	2dd\	-ni-
.	.	.	.	.	.	2.ff\	-bus
=6-	=6-	=6-	=6-	=6-	=6-	=6-	=6-
.	.	.	.	1f	ho-	.	.
.	.	.	.	.	.	4ee\	.
.	.	.	.	.	.	4dd\	.
!	!	!	!	!	!	!LO:TX:t=P:problem:kreska pseudotaktowa	!
.	.	.	.	.	.	4cc\	.
*	*	*	*	*2\right	*	*	*
.	.	.	.	2b-\	-mi-	1dd	ho-
.	.	.	.	2g\	-ni-	.	.
=7-	=7-	=7-	=7-	=7-	=7-	=7-	=7-
!LO:TX:t=P:problem:kreska pseudotaktowa	!	!LO:TX:t=P:problem:kreska pseudotaktowa	!	!	!	!	!
00rA	.	0.f	Bo-	2.a\	-bus	2.cc\	.
!	!	!	!	!LO:TX:t=P:problem:kreska pseudotaktowa	!	!	!
.	.	.	.	4g\	.	4b-/	.
.	.	.	.	4f/	.	4a/	.
.	.	.	.	4e/	.	4g/	.
.	.	.	.	2.d/	.	1b-\	.
=8-	=8-	=8-	=8-	=8-	=8-	=8-	=8-
.	.	.	.	.	.	.	.
.	.	.	.	4c/	.	.	.
.	.	.	.	4B-/	.	1a/	-mi-
.	.	.	.	4A/	.	.	.
.	.	1d	-nae	1B-	.	.	.
.	.	.	.	.	.	2g/	-ni-
=9-	=9-	=9-	=9-	=9-	=9-	=9-	=9-
!	!	!	!	!LO:TX:t=P:problem:kreska pseudotaktowa	!	!LO:TX:t=P:problem:kreska pseudotaktowa	!
0c	Bo-	1.e	Vo-	1A	.	1a	-b(us)
.	.	.	.	1r	.	2rg	.
*	*	*2\right	*	*	*	*	*
!	!	!LO:TX:t=P:problem:kreska pseudotaktowa	!	!	!	!	!
.	.	2d\	-lun-	.	.	2g/	bo-
=10-	=10-	=10-	=10-	=10-	=10-	=10-	=10-
!LO:TX:t=P:problem:kreska pseudotaktowa	!	!	!	!	!	!	!
1A	-nae	2c\	.	1a	bo-	2cc\	-nae
!	!	!	!	!	!	!LO:TX:t=P:problem:kreska pseudotaktowa	!
.	.	2.f\	-ta-	.	.	2cc\	vo-
!	!	!	!	!LO:TX:t=P:problem:kreska pseudotaktowa	!	!	!
1.B-	Vo-	.	.	0f	-nae	2b-\	-lun-
.	.	4e\	.	.	.	.	.
.	.	4d\	.	.	.	1dd\	-ta-
.	.	4c\	.	.	.	.	.
=11-	=11-	=11-	=11-	=11-	=11-	=11-	=11-
.	.	2B-/	.	.	.	.	.
*2\right	*	*	*	*	*	*	*
2A\	-lun-	2c/	.	.	.	1cc\	.
1G	-ta-	1d	.	1.g	Vo-	.	.
.	.	.	.	.	.	2b-\	.
=12-	=12-	=12-	=12-	=12-	=12-	=12-	=12-
!	!	!LO:TX:t=P:problem:kreska pseudotaktowa	!	!	!	!LO:TX:t=P:problem:kreska pseudotaktowa	!
2C,</	-tis	1c	-tis	.	.	0cc	-tis
2C/	Lau-	.	.	2g\	-lun-	.	.
2F\	-da-	2r	.	1a	-ta-	.	.
!LO:TX:t=P:problem:kreska pseudotaktowa	!	!	!	!	!	!	!
2F\	-m(us)	2c\	Lau-	.	.	.	.
=13-	=13-	=13-	=13-	=13-	=13-	=13-	=13-
!	!	!	!	!LO:TX:t=P:problem:kreska pseudotaktowa	!	!	!
!	!	!	!	!LO:SIC:v:t=custos g	!	!	!
4D/	Te	1f	-da-	1a	-tis.	1r	.
4E/	.	.	.	.	.	.	.
4F/	.	.	.	.	.	.	.
4G/	.	.	.	.	.	.	.
!	!	!	!	!LO:TX:t=P:problem:kreska pseudotaktowa	!	!	!
4A\	.	1e	-m(us)	0r	.	1cc	Lau-
4B-\	.	.	.	.	.	.	.
1c\	.	.	.	.	.	.	.
!	!	!	!	!LO:PB:g=original	!	!	!
=14-	=14-	=14-	=14-	=14-	=14-	=14-	=14-
!	!	!LO:TX:t=P:problem:kreska pseudotaktowa	!	!	!	!	!
.	.	1d	Te.	.	.	1ff	-da-
!LO:TX:t=P:problem:kreska pseudotaktowa	!	!	!	!	!	!	!
2B-\	.	.	.	.	.	.	.
!	!	!	!	!LO:TX:t=P:problem:przy kluczu B- b-	!	!	!
2.c\	.	00r	.	2r	.	1ee	-m(us)
.	.	.	.	2g\	be-	.	.
8B-\L	.	.	.	.	.	.	.
8A\J	.	.	.	.	.	.	.
=15-	=15-	=15-	=15-	=15-	=15-	=15-	=15-
2B-\	.	.	.	2g\	-ne-	2dd,<\	Te
2c\	.	.	.	2e\	-di-	2cc\	be-
!LO:TX:t=P:problem:kreska pseudotaktowa	!	!	!	!	!	!	!
1F	.	.	.	2f\	-ci-	2.cc\	-ne-
!	!	!	!	!LO:TX:t=P:problem:kreska pseudotaktowa	!	!	!
.	.	.	.	2a\	-m(us)	.	.
.	.	.	.	.	.	4a/	-di-
=16-	=16-	=16-	=16-	=16-	=16-	=16-	=16-
00r	.	.	.	2g\	Te	2b-\	-ci-
!	!	!	!	!	!	!LO:TX:t=P:problem:kreska pseudotaktowa	!
!	!	!	!	!	!	!LO:SIC:v:t=custos cc	!
.	.	.	.	1f\	.	2dd\	-m(us)
!	!	!	!	!	!	!LO:LB:g=original	!
.	.	2r	.	.	.	2.cc\	Te
.	.	2c/	be-	4e/	.	.	.
.	.	.	.	4d/	.	8b-/L	.
.	.	.	.	.	.	8a/J	.
=17-	=17-	=17-	=17-	=17-	=17-	=17-	=17-
.	.	2c/	-ne-	2.e\	.	2g/	.
.	.	2A/	-di-	.	.	2cc\	.
.	.	.	.	4f\	.	.	.
.	.	2B-/	-ci-	2g\	.	2b-\	.
.	.	2d\	-m(us)	1f\	.	4a/	.
.	.	.	.	.	.	8g/L	.
!	!	!	!	!	!	!LO:TX:t=P:problem:kreska pseudotaktowa	!
.	.	.	.	.	.	8f/J	.
=18-	=18-	=18-	=18-	=18-	=18-	=18-	=18-
!LO:TX:t=P:problem:kreska pseudotaktowa	!	!	!	!	!	!	!
1r	.	2.c/	Te	.	.	1g	.
.	.	.	.	2e\	.	.	.
.	.	4B-/	.	.	.	.	.
!	!	!	!	!LO:TX:t=P:problem:kreska pseudotaktowa	!	!	!
1.F	a-	4A/	.	1f	.	2a,</	.
.	.	4G/	.	.	.	.	.
!	!	!LO:TX:t=P:problem:kreska pseudotaktowa	!	!	!	!	!
.	.	2A/	.	.	.	1cc\	a-
=19-	=19-	=19-	=19-	=19-	=19-	=19-	=19-
.	.	2r	.	2r	.	.	.
!	!	!	!	!	!	!LO:TX:t=P:problem:kreska pseudotaktowa	!
2F\	-do-	1c\	a-	1a\	a-	2cc\	-do-
0F	-ra-	.	.	.	.	2.ff\	-ra-
.	.	2c\	-do-	2a\	-do-	.	.
.	.	.	.	.	.	4ee\	.
=20-	=20-	=20-	=20-	=20-	=20-	=20-	=20-
.	.	1f	-ra-	1a	-ra-	4dd\	-mus
.	.	.	.	.	.	4cc\	.
.	.	.	.	.	.	1cc\	.
!	!	!	!	!LO:TX:t=P:problem:kreska pseudotaktowa	!	!	!
1G	-m(us)	1d	-m(us)	1g	-m(us)	.	.
.	.	.	.	.	.	2b-\	.
=21-	=21-	=21-	=21-	=21-	=21-	=21-	=21-
!LO:TX:t=P:problem:kreska pseudotaktowa	!	!	!	!	!	!LO:TX:t=P:problem:kreska pseudotaktowa	!
1A	Te	2c,\	Te	2.e\	Te	0cc	Te
!	!	!LO:TX:t=P:problem:kreska pseudotaktowa	!	!	!	!	!
.	.	2c\	glo-	.	.	.	.
.	.	.	.	8f\L	.	.	.
.	.	.	.	8g\J	.	.	.
!	!	!LO:LB:g=original	!	!LO:TX:t=P:problem:kreska pseudotaktowa	!	!	!
2r	.	2c\	-ri-	0a	.	.	.
2F\	glo-	2c\	-fi-	.	.	.	.
=22-	=22-	=22-	=22-	=22-	=22-	=22-	=22-
2F\	-ri-	2.f\	-ca-	.	.	2rg	.
2F\	-fi-	.	.	.	.	2f/	glo-
!	!	!LO:TX:t=P:problem:kreska pseudotaktowa	!	!	!	!	!
.	.	4e\	.	.	.	.	.
1B-	-ca-	4d\	.	0r	.	2f/	-ri-
.	.	4c\	.	.	.	.	.
.	.	1f\	.	.	.	2f/	-fi-
=23-	=23-	=23-	=23-	=23-	=23-	=23-	=23-
1G	-m(us)	.	.	.	.	2b-\	-ca-
!	!	!LO:TX:t=P:problem:kreska pseudotaktowa	!	!	!	!LO:TX:t=P:problem:kreska pseudotaktowa	!
.	.	2e\	-mus	.	.	2b-\	-m(us)
!LO:TX:t=P:problem:kreska pseudotaktowa	!	!	!	!LO:TX:t=P:problem:kreska pseudotaktowa	!	!	!
1F	Te.	2f,<\	Te.	1r	.	2a,/	Te
.	.	2.F/	Gra-	.	.	2.cc\	Gra-
!LO:LB:g=original	!	!	!	!	!	!	!
=24-	=24-	=24-	=24-	=24-	=24-	=24-	=24-
00r	.	.	.	2r	.	.	.
.	.	4F/	-ti-	.	.	4cc\	-ti-
!	!	!LO:TX:t=P:problem:kreska pseudotaktowa	!	!	!	!LO:TX:t=P:problem:kreska pseudotaktowa	!
.	.	2F/	-as	2.f\	Gra-	2cc\	-as
.	.	2B-/	a-	.	.	2dd\	a-
.	.	.	.	4f\	-ti-	.	.
.	.	2G/	-gi-	2g\	-as	2ee\	-gi-
=25-	=25-	=25-	=25-	=25-	=25-	=25-	=25-
.	.	2F/	-m(us)	2a\	a-	2ff\	-m(us)
.	.	2B-/	Ti-	2f\	-gi-	2dd\	Ti-
!	!	!	!	!	!	!LO:TX:t=P:problem:kreska pseudotaktowa	!
.	.	4A/	.	2a\	-m(us)	1cc	-bi
.	.	4F/	.	.	.	.	.
.	.	1f\	.	2a\	Ti-	.	.
=26-	=26-	=26-	=26-	=26-	=26-	=26-	=26-
!LO:TX:t=P:problem:kreska pseudotaktowa	!	!	!	!LO:TX:t=P:problem:kreska pseudotaktowa	!	!	!
00r	.	.	.	1g	-bi	2r	.
!	!	!LO:TX:t=P:problem:kreska pseudotaktowa	!	!	!	!	!
.	.	2e\	.	.	.	1cc\	prop-
.	.	2.f\	.	2r	.	.	.
!	!	!	!	!	!	!LO:TX:t=P:problem:kreska pseudotaktowa	!
.	.	.	.	2f\	p(ro)p-	2dd\	-ter
.	.	8e\L	.	.	.	.	.
.	.	8d\J	.	.	.	.	.
=27-	=27-	=27-	=27-	=27-	=27-	=27-	=27-
.	.	2c,<\	-bi	2g\	-ter	1ee	ma-
.	.	2c\	prop-	1a\	ma-	.	.
.	.	2d\	.	.	.	2ff\	-gna(m)
.	.	2e\	-ter	2g\	-gna(m)	2ee\	g(lo-
=28-	=28-	=28-	=28-	=28-	=28-	=28-	=28-
!	!	!LO:TX:t=P:problem:kreska pseudotaktowa	!	!	!	!	!
2rD	.	1f	ma-	1.a	glo-	2dd\	-ri)-
1F\	prop-	.	.	.	.	1cc\	-a(m)
.	.	1d	-gna(m)	.	.	.	.
2G\	-ter	.	.	2g\	-ri-	2b-\	tu-
=29-	=29-	=29-	=29-	=29-	=29-	=29-	=29-
!	!	!	!	!	!	!LO:TX:t=P:problem:kreska pseudotaktowa	!
2.A\	ma-	2c\	glo-	2e\	-am	1cc	-a(m).
.	.	1f\	.	2a\	tu-	.	.
4B-\	.	.	.	.	.	.	.
!LO:TX:t=P:problem:kreska pseudotaktowa	!	!	!	!LO:TX:t=P:problem:kreska pseudotaktowa	!	!LO:LB:g=original	!
1c	-gna(m)	.	.	1g,<	-am	2r	.
.	.	2e\	.	.	.	2.cc\	glo-
!	!	!	!	!LO:LB:g=original	!	!	!
=30-	=30-	=30-	=30-	=30-	=30-	=30-	=30-
2A\	glo-	2.f\	.	0r	.	.	.
.	.	.	.	.	.	4cc\	-ri-
1B-\	-ri-	.	.	.	.	1dd\	-am
.	.	4g\	-ri-	.	.	.	.
.	.	2f\	-am	.	.	.	.
2c\	-am	2e\	tu-	.	.	1cc\	tu-
=31-	=31-	=31-	=31-	=31-	=31-	=31-	=31-
!	!	!LO:TX:t=P:problem:kreska pseudotaktowa	!	!	!	!	!
1G	tu-	1d	.	2r	.	.	.
.	.	.	.	1g\	Do-	2b-\	.
!LO:TX:t=P:problem:kreska pseudotaktowa	!	!	!	!	!	!LO:TX:t=P:problem:kreska pseudotaktowa	!
1C	-am	2c,/	-am	.	.	0.cc	-am.
.	.	1c/	Do-	2e\	-mi-	.	.
=32-	=32-	=32-	=32-	=32-	=32-	=32-	=32-
1r	.	.	.	2e\	-ne	.	.
!	!	!LO:TX:t=P:problem:kreska pseudotaktowa	!	!	!	!	!
!	!	!LO:SIC:v:t=custos A	!	!	!	!	!
.	.	2A/	-mi-	1f\	DE-	.	.
!	!	!LO:LB:g=original	!	!	!	!	!
2r	.	1.A	-ne	.	.	.	.
1c\	D(o-	.	.	4e/	-(us)	.	.
!	!	!	!	!LO:TX:t=P:problem:kreska pseudotaktowa	!	!	!
.	.	.	.	4d/	.	.	.
=33-	=33-	=33-	=33-	=33-	=33-	=33-	=33-
.	.	.	.	4e/	Rex	2r	.
.	.	.	.	4c/	.	.	.
2A\	-mi)-	2F/	De-	2f\	coe-	1cc\	Do-
!LO:TX:t=P:problem:kreska pseudotaktowa	!	!	!	!	!	!	!
1A	-ne	1c	-us	2e\	.	.	.
.	.	.	.	1f\	-le-	2a/	-mi-
=34-	=34-	=34-	=34-	=34-	=34-	=34-	=34-
!	!	!LO:TX:t=P:problem:kreska pseudotaktowa	!	!	!	!	!
2F\	DE-	1d	.	.	.	2a/	-ne
1G\	-(us)	.	.	2d/	.	1b-\	DE-
.	.	2B-/	Rex	2e\	.	.	.
!	!	!	!	!LO:TX:t=P:problem:kreska pseudotaktowa	!	!LO:TX:t=P:problem:kreska pseudotaktowa	!
2A\	Rex	2c\	coe-	2f\	-stis	2a/	-(us)
=35-	=35-	=35-	=35-	=35-	=35-	=35-	=35-
2B-\	.	4d\	.	0r	.	2f/	Rex
.	.	4e\	.	.	.	.	.
2A\	coe-	1f\	-le-	.	.	2a/	.
2B-\	-le-	.	.	.	.	1g	coe-
2c\	.	2e\	-stis	.	.	.	.
=36-	=36-	=36-	=36-	=36-	=36-	=36-	=36-
!	!	!LO:TX:t=P:problem:kreska pseudotaktowa	!	!	!	!	!
0F	.	1f	.	2r	.	4f/	-le-
.	.	.	.	.	.	4g/	.
.	.	.	.	2f\	De-	4a/	.
.	.	.	.	.	.	4b-/	.
.	.	2r	.	2f\	-us	4cc\	.
.	.	.	.	.	.	4b-\	.
.	.	2c\	De-	2a\	Pa-	4cc\	.
!	!	!	!	!	!	!LO:TX:t=P:problem:kreska pseudotaktowa	!
.	.	.	.	.	.	4dd\	.
=37-	=37-	=37-	=37-	=37-	=37-	=37-	=37-
!LO:TX:t=P:problem:kreska pseudotaktowa	!	!	!	!	!	!	!
1C	-stis	2c\	-us	2g\	-ter	4ee\	.
.	.	.	.	.	.	8dd\L	.
.	.	.	.	.	.	8cc\J	.
!	!	!	!	!LO:TX:t=P:problem:kreska pseudotaktowa	!	!	!
.	.	2e\	Pa-	2g\	O-	4cc\	.
.	.	.	.	.	.	8dd\L	.
.	.	.	.	.	.	8ee\J	.
1r	.	2d\	-ter	2f\	-mni-	1ff	.
!	!	!LO:TX:t=P:problem:kreska pseudotaktowa	!	!	!	!	!
.	.	2d\	Om-	1a\	.	.	.
=38-	=38-	=38-	=38-	=38-	=38-	=38-	=38-
!	!	!	!	!	!	!LO:TX:t=P:problem:kreska pseudotaktowa	!
2rE	.	2.c/	-ni-	.	.	0ee	-stis
2C/	De-	.	.	1g\	.	.	.
.	.	8B-/L	.	.	.	.	.
.	.	8A/J	.	.	.	.	.
2C/	-us	2G/	.	.	.	.	.
2E/	Pa-	2c/	.	4f\	.	.	.
!	!	!	!	!LO:TX:t=P:problem:kreska pseudotaktowa	!	!	!
.	.	.	.	4e\	.	.	.
=39-	=39-	=39-	=39-	=39-	=39-	=39-	=39-
2D/	.	2B-/	.	2.f\	.	0r	.
!LO:TX:t=P:problem:kreska pseudotaktowa	!	!	!	!	!	!	!
2D/	-ter	2.A/	.	.	.	.	.
.	.	.	.	4g\	.	.	.
2.C/	O-	.	.	2a\	.	.	.
.	.	4G/	.	.	.	.	.
!	!	!LO:TX:t=P:problem:kreska pseudotaktowamiędzy nutą a kropką	!	!	!	!	!
.	.	2.c/	.	1g\	.	.	.
4D/	.	.	.	.	.	.	.
=40-	=40-	=40-	=40-	=40-	=40-	=40-	=40-
2E/	-mni-	.	.	.	.	2r	.
.	.	4B-/	.	.	.	.	.
2F/	-po-	2A/	.	1f\	-po-	1cc\	Do-
1C	.	2.G/	-po-	.	.	.	.
.	.	.	.	2e\	.	2cc\	-mi-
.	.	4G/	-tens	.	.	.	.
=41-	=41-	=41-	=41-	=41-	=41-	=41-	=41-
!LO:TX:t=P:problem:kreska pseudotaktowa	!	!	!	!LO:TX:t=P:problem:kreska pseudotaktowa	!	!	!
0.F	-tens.	2F,</	.	1f	-tens.	2a/	-ne
!	!	!	!	!	!	!LO:TX:t=P:problem:kreska pseudotaktowa	!
.	.	1c\	Do-	.	.	2f/	Fi-
.	.	.	.	2r	.	2cc\	-li
!	!	!LO:TX:t=P:problem:kreska pseudotaktowa	!	!	!	!	!
.	.	2c\	-mi-	1f\	Do-	1cc\	U-
=42-	=42-	=42-	=42-	=42-	=42-	=42-	=42-
.	.	2A/	-ne	.	.	.	.
!	!	!	!	!	!	!LO:TX:t=P:problem:kreska pseudotaktowa	!
.	.	2F/	Fi-	2f\	-mi-	2cc\	-ni-
00r	.	2B-/	-li	2d/	-ne	2dd\	-ge-
!	!	!	!	!LO:TX:t=P:problem:kreska pseudotaktowa	!	!	!
.	.	2A/	U-	2c/	Fi-	2ee\	-ni-
=43-	=43-	=43-	=43-	=43-	=43-	=43-	=43-
.	.	2.d\	-ni-	2f\	-li	2.ff\	-te
.	.	.	.	1f\	U-	.	.
.	.	8c/L	-ge-	.	.	8ee\L	.
.	.	8B-/J	.	.	.	8dd\J	.
.	.	2A/	.	.	.	2cc\	.
.	.	1B-/	.	2f\	-ni-	1dd\	.
=44-	=44-	=44-	=44-	=44-	=44-	=44-	=44-
.	.	.	.	2g\	-ge-	.	.
!	!	!LO:TX:t=P:problem:kreska pseudotaktowa	!	!	!	!	!
.	.	2A/	-ni-	2a\	.	2cc\	.
!LO:TX:t=P:problem:kreska pseudotaktowa	!	!LO:LB:g=original	!	!	!	!LO:TX:t=P:problem:kreska pseudotaktowa	!
1r	.	4G/	-te	2.b-\	.	1dd	.
.	.	4A/	.	.	.	.	.
.	.	4B-/	.	.	.	.	.
.	.	4c/	.	8a\L	.	.	.
!	!	!	!	!LO:TX:t=P:problem:kreska pseudotaktowa	!	!	!
.	.	.	.	8g\J	.	.	.
!LO:LB:g=original	!	!	!	!LO:LB:g=original	!	!LO:LB:g=original	!
=45-	=45-	=45-	=45-	=45-	=45-	=45-	=45-
2r	.	4d\	.	2f\	.	1rff	.
.	.	4e\	.	.	.	.	.
2F\	JE-	1f\	.	2a\	-ni-	.	.
!	!	!	!	!LO:TX:t=P:problem:kreska pseudotaktowa	!	!	!
2.c\	.	.	.	1g	-te	2r	.
.	.	2e\	.	.	.	2g/	JE-
4B-\	.	.	.	.	.	.	.
=46-	=46-	=46-	=46-	=46-	=46-	=46-	=46-
!	!	!LO:TX:t=P:problem:kreska pseudotaktowa	!	!	!	!	!
4A\	.	1f	.	1r	.	2.cc\	-SU
4G\	.	.	.	.	.	.	.
1F\	-SU	.	.	.	.	.	.
.	.	.	.	.	.	4b-/	.
.	.	1rc	.	2rA	.	2a/	.
2E/	.	.	.	2G/	Je-	2g/	.
=47-	=47-	=47-	=47-	=47-	=47-	=47-	=47-
!	!	!	!	!	!	!LO:TX:t=P:problem:kreska pseudotaktowa	!
1D	.	2rA	.	4A/	.	1f	.
.	.	.	.	4G/	.	.	.
.	.	2F/	Je-	4A/	.	.	.
.	.	.	.	4B-/	.	.	.
*lig	*	*	*	*	*	*	*
1C	X-	1G	-su	1c	-su	4e/	.
.	.	.	.	.	.	4d/	.
.	.	.	.	.	.	4e/	.
.	.	.	.	.	.	4f/	.
=48-	=48-	=48-	=48-	=48-	=48-	=48-	=48-
1BB-	.	1B-	X-	1d	X-	2g/	Chri-
.	.	.	.	.	.	1f/	.
*Xlig	*	*	*	*	*	*	*
!LO:TX:t=P:problem:kreska pseudotaktowa	!	!LO:TX:t=P:problem:kreska pseudotaktowa	!	!LO:TX:t=P:problem:kreska pseudotaktowa	!	!	!
00C	-te	0G	-te	1c	-te	.	.
.	.	.	.	.	.	4e/	.
!	!	!	!	!	!	!LO:TX:t=P:problem:kreska pseudotaktowa	!
.	.	.	.	.	.	4d/	.
=49-	=49-	=49-	=49-	=49-	=49-	=49-	=49-
!	!	!	!	!	!	!LO:TX:t=P:problem:kreska pseudotaktowa	!
.	.	.	.	2r	.	0.e	-ste
.	.	.	.	1g\	Do-	.	.
.	.	1r	.	.	.	.	.
.	.	.	.	2g\	-mi-	.	.
=50-	=50-	=50-	=50-	=50-	=50-	=50-	=50-
.	.	2rA	.	2a\	-ne	.	.
.	.	1c\	D(o-	2g\	De-	.	.
00r	.	.	.	4e\	.	1r	.
.	.	.	.	4f\	.	.	.
.	.	2c\	-mi)-	4g\	-us	.	.
!	!	!	!	!LO:TX:t=P:problem:kreska pseudotaktowa	!	!	!
.	.	.	.	4e\	.	.	.
=51-	=51-	=51-	=51-	=51-	=51-	=51-	=51-
.	.	2d\	-ne	2f\	A-	2rg	.
.	.	2c\	De-	2g\	-gn(us)	1cc\	Do-
*	*	*	*	*	*ij	*	*
.	.	4A/	-(us)	1a	A-	.	.
.	.	4B-/	.	.	.	.	.
.	.	4c/	.	.	.	2cc\	-mi-
.	.	4A/	.	.	.	.	.
=52-	=52-	=52-	=52-	=52-	=52-	=52-	=52-
!	!	!	!	!LO:TX:t=P:problem:kreska pseudotaktowa	!	!	!
.	.	2B-/	A-	1g	-gn(us)	2dd\	-ne
*	*	*	*	*	*Xij	*	*
.	.	2c\	-gn(us)	.	.	2cc\	DE-
*	*	*	*ij	*	*	*	*
2r	.	2d\	A-	4f\	De-	2a/	-US
.	.	.	.	4e\	.	.	.
!	!	!LO:TX:t=P:problem:kreska pseudotaktowa	!	!	!	!	!
1F\	Do-	2d\	-gn(us)	4f\	.	2.ff\	A-
.	.	.	.	4g\	.	.	.
*	*	*	*Xij	*	*	*	*
=53-	=53-	=53-	=53-	=53-	=53-	=53-	=53-
!	!	!	!	!LO:TX:t=P:problem:kreska pseudotaktowa	!	!	!
.	.	2c\	De-	1a	-i	.	.
.	.	.	.	.	.	4ee\	.
!LO:TX:t=P:problem:kreska pseudotaktowa	!	!	!	!	!	!	!
2F\	-mi-	2f\	.	.	.	4dd\	.
!	!	!	!	!	!	!LO:TX:t=P:problem:kreska pseudotaktowa	!
.	.	.	.	.	.	4cc\	.
2G\	-ne	2d\	.	2r	.	2b-\	.
2F\	DE-	1f\	.	1a\	A-	2cc\	-gnus
=54-	=54-	=54-	=54-	=54-	=54-	=54-	=54-
1B-	-(us)	.	.	.	.	1dd	De-
.	.	4e\	.	2g\	-gnus	.	.
.	.	4d\	.	.	.	.	.
*	*	*	*	*lig	*	*	*
2A\	A-	2e\	.	1a	De-	2cc,<\	-i
!LO:TX:t=P:problem:kreska pseudotaktowa	!	!	!	!	!	!	!
2F\	-gn(us)	2f\	.	.	.	1cc\	Fi-
=55-	=55-	=55-	=55-	=55-	=55-	=55-	=55-
!	!	!LO:TX:t=P:problem:kreska pseudotaktowa	!	!LO:TX:t=P:problem:kreska pseudotaktowa	!	!	!
2.G\	De-	1d	-i	1g	.	.	.
!	!	!	!	!	!	!LO:TX:t=P:problem:kreska pseudotaktowa	!
.	.	.	.	.	.	2b-\	-li-
4F/	.	.	.	.	.	.	.
*	*	*	*	*Xlig	*	*	*
2E/	.	2r	.	2g\	.	1cc	-(us)
2F\	.	1c\	Fi-	1a\	.	.	.
=56-	=56-	=56-	=56-	=56-	=56-	=56-	=56-
1D	.	.	.	.	.	1dd	P(a-
.	.	2B-/	-li-	4g\	.	.	.
.	.	.	.	4f\	.	.	.
!LO:TX:t=P:problem:kreska pseudotaktowa	!	!	!	!	!	!	!
1C	-i	2.c\	-us	4e/	.	2g/	-t)ris
.	.	.	.	4d/	.	.	.
.	.	.	.	2e/	.	2.cc/	Fi-
.	.	4d\	.	.	.	.	.
=57-	=57-	=57-	=57-	=57-	=57-	=57-	=57-
!	!	!	!	!LO:TX:t=P:problem:kreska pseudotaktowa	!	!	!
2rE	.	2e\	.	1c	-i	.	.
.	.	.	.	.	.	4b-/	.
1F\	Fi-	2f\	Pa-	.	.	1a/	-li-
.	.	1c	.	1r	.	.	.
2E/	-li-	.	.	.	.	2g/	-(us)
=58-	=58-	=58-	=58-	=58-	=58-	=58-	=58-
*	*	*	*	*	*	*lig	*
!LO:TX:t=P:problem:kreska pseudotaktowa	!	!	!	!	!	!	!
1F	-(us)	1.d	.	2r	.	1a	Pa-
.	.	.	.	1f\	Fi-	.	.
1G	Pa-	.	.	.	.	1b-	.
.	.	4c/	.	2e\	-li-	.	.
.	.	4B-/	.	.	.	.	.
*	*	*	*	*	*	*Xlig	*
=59-	=59-	=59-	=59-	=59-	=59-	=59-	=59-
!	!	!	!	!LO:TX:t=P:problem:kreska pseudotaktowa	!	!	!
2.F/	.	2d\	.	0f	-us	2a/	.
!	!	!LO:TX:t=P:problem:kreska pseudotaktowa	!	!	!	!	!
.	.	2c\	-tris	.	.	1cc\	.
4E/	.	.	.	.	.	.	.
1D	.	2rf	.	.	.	.	.
*	*	*	*ij	*	*	*	*
.	.	1f\	Fi-	.	.	2b-\	.
!	!	!	!	!LO:LB:g=original	!	!	!
=60-	=60-	=60-	=60-	=60-	=60-	=60-	=60-
!LO:TX:t=P:problem:kreska pseudotaktowa	!	!	!	!	!	!LO:TX:t=P:problem:kreska pseudotaktowa	!
1C	-tris	.	.	1g	Pa-	0cc	-tris,
.	.	2e\	-li-	.	.	.	.
!	!	!	!	!LO:TX:t=P:problem:kreska pseudotaktowa	!	!	!
2rE	.	2.f\	-us	1a	-tris	.	.
*	*ij	*	*	*	*	*	*
1F\	Fi-	.	.	.	.	.	.
.	.	8e\L	.	.	.	.	.
.	.	8d\J	.	.	.	.	.
!	!	!	!	!	!	!LO:LB:g=original	!
=61-	=61-	=61-	=61-	=61-	=61-	=61-	=61-
.	.	2c\	.	2rg	.	2a/	Fi-
2D/	-li-	2d\	.	2a\	Fi-	2f/	-li-
2.E-X/	-us	4G/	Pa-	2g\	-li-	1.b-	-(us)
.	.	4A/	.	.	.	.	.
!	!	!	!	!LO:TX:t=P:problem:kreska pseudotaktowamiędzy nutą a kropką	!	!	!
.	.	4B-/	.	2.g\	-us	.	.
8D/L	.	4c/	.	.	.	.	.
8C/J	.	.	.	.	.	.	.
=62-	=62-	=62-	=62-	=62-	=62-	=62-	=62-
2BB-/	.	2d\	.	.	.	.	.
.	.	.	.	4f\	.	.	.
2F\	Pa-	2c\	.	1f\	Pa-	2a/	Pa-
1C	.	[1cl;	-tris	.	.	1g	.
.	.	.	.	2e\	.	.	.
*	*	*	*Xij	*	*	*	*
=63-	=63-	=63-	=63-	=63-	=63-	=63-	=63-
0Fl;	-tris	0c]	.	0fl;	-tris.	0al;	-tris.
*	*Xij	*	*	*	*	*	*
!LO:LB:g=original	!	!LO:PB:g=original	!	!	!	!	!
=64||	=64||	=64||	=64||	=64||	=64||	=64||	=64||
*M2/1	*	*M2/1	*	*M2/1	*	*M2/1	*
*met(C|)	*	*met(C|)	*	*met(C|)	*	*met(C|)	*
!	!	!LO:TX:t=P:problem:kreska pseudotaktowa	!	!LO:TX:t=P:problem:kreska pseudotaktowa	!	!	!
00r	.	00r	.	1r	.	1cc	Qui
.	.	.	.	1f	Qui	2cc\	tol-
.	.	.	.	.	.	1cc\	-lis
=65-	=65-	=65-	=65-	=65-	=65-	=65-	=65-
.	.	.	.	2f\	tol-	.	.
!	!	!	!	!	!	!LO:TX:t=P:problem:kreska pseudotaktowa	!
.	.	.	.	1f\	-lis	2dd\	pec-
.	.	.	.	.	.	2cc\	-ca-
!	!	!	!	!LO:TX:t=P:problem:kreska pseudotaktowa	!	!	!
.	.	.	.	2g\	pec-	2b-\	-ta
=66-	=66-	=66-	=66-	=66-	=66-	=66-	=66-
!LO:TX:t=P:problem:kreska pseudotaktowa	!	!	!	!	!	!	!
1r	.	2r	.	2f\	-ca-	2.cc\	mun-
.	.	2c\	Qui	2e\	.	.	.
.	.	.	.	.	.	4b-/	.
1F	Qui	2c\	tol-	2.f\	-ta	4a/	.
.	.	.	.	.	.	4g/	.
.	.	1c\	-lis	.	.	2a/	.
.	.	.	.	4g\	.	.	.
=67-	=67-	=67-	=67-	=67-	=67-	=67-	=67-
2F\	tol-	.	.	2a\	mun-	2f/	.
!	!	!LO:TX:t=P:problem:kreska pseudotaktowa	!	!	!	!	!
1F\	-lis	2d\	pec-	1f\	.	1a/	.
.	.	2c\	-ca-	.	.	.	.
!LO:TX:t=P:problem:kreska pseudotaktowa	!	!	!	!	!	!LO:TX:t=P:problem:kreska pseudotaktowa	!
2G\	pec-	2B-/	.	2e\	.	2g/	.
=68-	=68-	=68-	=68-	=68-	=68-	=68-	=68-
!	!	!	!	!LO:TX:t=P:problem:kreska pseudotaktowa	!	!	!
2F/	-(ca)-	2c\	-ta	1f	-di	2a,/	-di
2D/	-ta	2d\	.	.	.	1a/	mi-
2.F/	mun-	1c	mun-	2r	.	.	.
.	.	.	.	2f\	mi-	2a/	-ſe-
4E/	.	.	.	.	.	.	.
=69-	=69-	=69-	=69-	=69-	=69-	=69-	=69-
!	!	!LO:TX:t=P:problem:kreska pseudotaktowa	!	!	!	!	!
2D/	.	1F	-di	2f\	-ſe-	1dd	-re-
2BB-/	.	.	.	1b-\	-re-	.	.
!	!	!	!	!	!	!LO:TX:t=P:problem:kreska pseudotaktowa	!
1F	.	2r	.	.	.	1cc	-re
.	.	1c\	mi-	2a\	.	.	.
=70-	=70-	=70-	=70-	=70-	=70-	=70-	=70-
!LO:TX:t=P:problem:kreska pseudotaktowa	!	!	!	!	!	!	!
1C	-di	.	.	1g	-re,	2r	.
*	*	*	*	*	*	*	*ij
.	.	2c\	-ſe-	.	.	2cc\	mi-
0r	.	2.f\	-re-	2a\	.	2cc\	-ſe-
.	.	.	.	4d/	no-	1ff\	-re-
.	.	4e\	.	4e/	.	.	.
=71-	=71-	=71-	=71-	=71-	=71-	=71-	=71-
.	.	2d\	-re	4f\	.	.	.
.	.	.	.	4g\	.	.	.
.	.	2c\	no-	1a\	.	2ee\	-re
*	*	*	*	*	*	*	*Xij
!LO:TX:t=P:problem:kreska pseudotaktowa	!	!LO:TX:t=P:problem:kreska pseudotaktowa	!	!	!	!LO:TX:t=P:problem:kreska pseudotaktowa	!
1r	.	1B-	.	.	.	1dd	no-
!	!	!	!	!LO:TX:t=P:problem:kreska pseudotaktowa	!	!	!
.	.	.	.	2g\	.	.	.
=72-	=72-	=72-	=72-	=72-	=72-	=72-	=72-
2r	.	2A,</	-bis.	2a,\	-bis.	2cc,<\	-bis
2F\	Qui	2c\	Qui	2f\	Qui	2a/	Qui
2F\	tol-	2c\	tol-	2f\	tol-	2a/	tol-
1F\	-lis	1c\	-lis	1f\	-lis	1a/	-lis
=73-	=73-	=73-	=73-	=73-	=73-	=73-	=73-
.	.	.	.	.	.	.	.
!LO:TX:t=P:problem:kreska pseudotaktowa	!	!LO:TX:t=P:problem:kreska pseudotaktowa	!	!LO:TX:t=P:problem:kreska pseudotaktowa	!	!LO:TX:t=P:problem:kreska pseudotaktowa	!
2BB-/	pec-	2d\	pec-	2f\	pec-	2b-/	p(e)c-
!	!	!	!	!LO:LB:g=original	!	!	!
2F\	-ca-	2c\	-ca-	2f\	-ca-	2a/	-(ca)-
2G\	-ta	2B-/	-ta	2d/	-ta	2g/	-ta
=74-	=74-	=74-	=74-	=74-	=74-	=74-	=74-
1F	mun-	1c	mun-	1f	mun-	1a	mun-
!LO:TX:t=P:problem:kreska pseudotaktowa	!	!LO:TX:t=P:problem:kreska pseudotaktowa	!	!LO:TX:t=P:problem:kreska pseudotaktowa	!	!LO:TX:t=P:problem:kreska pseudotaktowa	!
1C	-di	1c,<	-di.	1e	-di	1g	-di
=75-	=75-	=75-	=75-	=75-	=75-	=75-	=75-
1.BB-	Su-	1.d	Su-	1.f	Su-	1.b-	Su-
.	.	.	.	.	.	.	.
2C/	-ſci-	2c/	-ſci-	2e\	-ſci-	2g/	-ſci-
=76-	=76-	=76-	=76-	=76-	=76-	=76-	=76-
!LO:TX:t=P:problem:kreska pseudotaktowa	!	!	!	!LO:TX:t=P:problem:kreska pseudotaktowa	!	!LO:TX:t=P:problem:kreska pseudotaktowa	!
1C	-pe	2c/	-pe	1e	-pe	1g	-pe
.	.	1g\	de-	.	.	.	.
!	!	!	!	!	!	!LO:TX:t=P:problem:kreska pseudotaktowa	!
!	!	!	!	!	!	!LO:LB:g=original	!
1c	de-	.	.	2r	.	1rff	.
.	.	2e\	-pre-	1a\	de-	.	.
=77-	=77-	=77-	=77-	=77-	=77-	=77-	=77-
2A\	-pre-	2.f\	-ca-	.	.	2r	.
!	!	!	!	!LO:TX:t=P:problem:kreska pseudotaktowa	!	!	!
1B-\	-ca-	.	.	2f\	-pre-	1dd\	de-
.	.	4e\	-ti-	.	.	.	.
.	.	1d	-o-	2.g\	-ca-	.	.
2G\	-ti-	.	.	.	.	2b-\	-pre-
.	.	.	.	4f\	-ti-	.	.
=78-	=78-	=78-	=78-	=78-	=78-	=78-	=78-
!	!	!LO:TX:t=P:problem:kreska pseudotaktowa	!	!	!	!	!
1A	-o-	1c	-nem	2e\	-o-	2.cc\	-ca-
.	.	.	.	1f\	.	.	.
.	.	.	.	.	.	4b-/	-ti-
!	!	!LO:LB:g=original	!	!	!	!	!
2F\	-nem	2rf	.	.	.	2a/	-o-
2G\	n(o-	1g\	de-	2d/	-nem	2b-\	-[nem]
=79-	=79-	=79-	=79-	=79-	=79-	=79-	=79-
2C,</	-st)ra(m)	.	.	2.e/	nos-	1g	noſ-
2c\	de-	2e\	-pre-	.	.	.	.
.	.	.	.	4d/	.	.	.
2A\	-pre-	2.f\	-ca-	2c/	.	2a,/	-tra(m)
*	*	*	*	*	*	*	*ij
!	!	!	!	!LO:TX:t=P:problem:kreska pseudotaktowa	!	!	!
1B-\	-ca-	.	.	2d/	-tra(m)	1dd\	de-
.	.	4e\	-ti-	.	.	.	.
=80-	=80-	=80-	=80-	=80-	=80-	=80-	=80-
.	.	1d	-o-	2r	.	.	.
2G\	-ti-	.	.	2g\	Qui	2b-\	-pre-
2A\	-o-	2c\	-nem	(2e\	se-	2cc\	-ca-
!LO:TX:t=P:problem:kreska pseudotaktowa	!	!	!	!	!	!	!
!LO:SIC:v:t=custos A	!	!	!	!	!	!	!
2F\	-nem	2.d\	no-	2f\)	.	2a/	-ti-
!LO:LB:g=original	!	!	!	!	!	!	!
=81-	=81-	=81-	=81-	=81-	=81-	=81-	=81-
*lig	*	*	*	*	*	*	*
1A	no-	.	.	2e,<\	-des	2a/	-o-
.	.	4c/	.	.	.	.	.
!	!	!	!	!	!	!LO:TX:t=P:problem:kreska pseudotaktowa	!
.	.	1c\	.	2c/	ad	2f/	-[nem]
1G	.	.	.	2d/	dex-	1g	noſ-
!	!	!	!	!LO:TX:t=P:problem:kreska pseudotaktowa	!	!	!
.	.	2B-/	.	2d/	-te-	.	.
*Xlig	*	*	*	*	*	*	*
=82-	=82-	=82-	=82-	=82-	=82-	=82-	=82-
!LO:TX:t=P:problem:kreska pseudotaktowa	!	!LO:TX:t=P:problem:kreska pseudotaktowa	!	!	!	!LO:TX:t=P:problem:kreska pseudotaktowa	!
1C	-stram	1c	-stram	2e\	-ra(m)	1g	-tram
*	*	*	*	*	*	*	*Xij
.	.	.	.	4r	.	.	.
.	.	.	.	4g\	P(a-	.	.
2r	.	2r	.	2g\	-t)ris	0r	.
2c\	Qui	2e\	qui	1g\	ad	.	.
=83-	=83-	=83-	=83-	=83-	=83-	=83-	=83-
2c\	se-	2e\	se-	.	.	.	.
2c\	-des	2e\	-des	1a\	dex-	.	.
!	!	!	!	!	!	!LO:TX:t=P:problem:kreska pseudotaktowa	!
1d	ad	1f	ad	.	.	1r	.
!	!	!	!	!LO:TX:t=P:problem:kreska pseudotaktowa	!	!	!
.	.	.	.	2f\	-te-	.	.
=84-	=84-	=84-	=84-	=84-	=84-	=84-	=84-
1.c	dex-	2.e\	dex-	2g\	.	2r	.
.	.	.	.	2g\	-ram	2cc\	Qui
.	.	4d\	-te-	.	.	.	.
.	.	2e\	-ra(m)	1a	Pa-	2cc\	se-
!LO:TX:t=P:problem:kreska pseudotaktowa	!	!	!	!	!	!LO:TX:t=P:problem:kreska pseudotaktowa	!
2A\	-te-	1f\	P(a-	.	.	2cc\	-des
=85-	=85-	=85-	=85-	=85-	=85-	=85-	=85-
2B-\	-ram	.	.	2g\	.	2dd\	ad
!	!	!LO:TX:t=P:problem:kreska pseudotaktowa	!	!	!	!	!
2c\	Pa-	2e\	.	2.a\	.	1cc\	dex-
!LO:TX:t=P:problem:kreska pseudotaktowa	!	!	!	!	!	!	!
1F	-tris	2f,\	-t)ris	.	.	.	.
.	.	.	.	4g\	.	.	.
!	!	!	!	!	!	!LO:TX:t=P:problem:kreska pseudotaktowa	!
.	.	2F/	mi-	4f/	.	2a/	-te-
.	.	.	.	4e/	.	.	.
=86-	=86-	=86-	=86-	=86-	=86-	=86-	=86-
0r	.	2G/	-ſe-	2d/	.	2b-\	-ram
!	!	!	!	!LO:TX:t=P:problem:kreska pseudotaktowa	!	!	!
.	.	2A/	-re-	2c/	-tris	2cc\	P(a-
!	!	!	!	!LO:LB:g=original	!	!	!
.	.	2B-/	-re	2r	.	2f,</	-t)ris
.	.	2d\	no-	2f\	mi-	1ff\	mi-
=87-	=87-	=87-	=87-	=87-	=87-	=87-	=87-
!LO:TX:t=P:problem:kreska pseudotaktowa	!	!LO:TX:t=P:problem:kreska pseudotaktowa	!	!	!	!	!
1r	.	1c	-bis	2g\	-ſe-	.	.
!	!	!	!	!	!	!LO:TX:t=P:problem:kreska pseudotaktowa	!
.	.	.	.	2a\	-re-	2ee\	-ſe-
2r	.	1rg	.	2b-\	-re	2dd\	-re-
!	!	!	!	!LO:TX:t=P:problem:kreska pseudotaktowa	!	!	!
2F\	mi-	.	.	2a\	no-	2cc\	-re
=88-	=88-	=88-	=88-	=88-	=88-	=88-	=88-
2G\	-ſe-	2rf	.	2g\	.	2b-\	no-
*	*	*	*ij	*	*	*	*
!LO:TX:t=P:problem:kreska pseudotaktowa	!	!	!	!	!	!	!
2A\	-re-	2c/	mi-	1f\	.	2a/	.
2B-\	.	2d\	-ſe-	.	.	2g/	-bis
2c\	-re	2e\	-re-	2e\	.	4r	.
!	!	!	!	!	!	!LO:TX:t=P:problem:kreska pseudotaktowa	!
.	.	.	.	.	.	4g/	mi-
=89-	=89-	=89-	=89-	=89-	=89-	=89-	=89-
4F\	no-	1f	-re	2d/	.	2a/	-ſe-
4G\	.	.	.	.	.	.	.
!	!	!	!	!LO:TX:t=P:problem:kreska pseudotaktowa	!	!	!
4A\	.	.	.	2c/	-bis.	2cc\	-re-
4F\	.	.	.	.	.	.	.
!LO:TX:t=P:problem:kreska pseudotaktowa	!	!LO:TX:t=P:problem:kreska pseudotaktowa	!	!	!	!	!
1G	-bis.	1d	no-	2r	.	2cc\	-re
!	!	!	!	!	!	!LO:TX:t=P:problem:kreska pseudotaktowa	!
!	!	!	!	!	!	!LO:SIC:v:t=custos cc	!
.	.	.	.	2.g\	Quo-	2b-\	no-
!	!	!	!	!	!	!LO:PB:g=original	!
=90-	=90-	=90-	=90-	=90-	=90-	=90-	=90-
2r	.	2c,</	-bis	.	.	2cc\	-bis.
*	*	*	*Xij	*	*	*	*
.	.	.	.	4g\	-ni-	.	.
2.F\	Quo-	2.f\	Quo-	1a\	-am	2.cc\	Quo-
.	.	.	.	.	.	.	.
4F\	-ni-	4f\	-ni-	.	.	4cc\	-ni-
!LO:TX:t=P:problem:kreska pseudotaktowa	!	!	!	!	!	!LO:TX:t=P:problem:kreska pseudotaktowa	!
2F\	-am	2f\	-am	2a\	Tu	2cc\	-am
=91-	=91-	=91-	=91-	=91-	=91-	=91-	=91-
2c\	Tu	2e\	Tu	2g\	so-	2cc\	Tu
!	!	!LO:TX:t=P:problem:kreska pseudotaktowa	!	!	!	!	!
!	!	!LO:SIC:v:t=custos d	!	!	!	!	!
2A\	so-	2c/	so-	2f\	-l(us)	2cc\	so-
!	!	!LO:LB:g=original	!	!LO:TX:t=P:problem:kreska pseudotaktowa	!	!	!
2G\	-lus	2d\	-lus	1g	S(an)-	2b-\	-l(us)
!	!	!	!	!	!	!LO:TX:t=P:problem:kreska pseudotaktowa	!
2C/	San-	2e\	San-	.	.	2cc\	S(an)c-
=92-	=92-	=92-	=92-	=92-	=92-	=92-	=92-
!LO:TX:t=P:problem:kreska pseudotaktowa	!	!	!	!	!	!	!
1F	-ct(us).	2f,<\	-ct(us)	2a,\	-ct(us)	2cc,<\	-t(us)
.	.	2F/	Tu	2a\	Tu	2cc\	Tu
!LO:TX:t=P:problem:kreska pseudotaktowa	!	!	!	!	!	!	!
!LO:SIC:v:t=custos f	!	!	!	!	!	!	!
0r	.	2B-/	so-	2f\	so-	2dd\	so-
!	!	!	!	!	!	!LO:TX:t=P:problem:kreska pseudotaktowa	!
.	.	2G/	-l(us)	2b-\	-l(us)	2dd\	-l(us)
!LO:PB:g=original	!	!	!	!	!	!	!
=93-	=93-	=93-	=93-	=93-	=93-	=93-	=93-
.	.	2.F/	D(o-	2.a\	Do-	2.ff\	D(o-
.	.	4F/	-mi)-	4a\	-mi-	4ff\	-mi)-
2r	.	2c,<\	-n(us)	2g,\	-n(us)	2ee,<\	-nus
1F\	Tu	1f\	Tu	1a\	Tu	1cc\	Tu
=94-	=94-	=94-	=94-	=94-	=94-	=94-	=94-
.	.	.	.	.	.	.	.
!LO:TX:t=P:problem:kreska pseudotaktowa	!	!	!	!	!	!	!
2F\	so-	2f\	so-	2a\	so-	2cc\	so-
2C/	-lus	2e\	-l(us)	2g\	-l(us)	2cc\	-l(us)
!	!	!LO:TX:t=P:problem:kreska pseudotaktowa	!	!LO:TX:t=P:problem:kreska pseudotaktowa	!	!LO:TX:t=P:problem:kreska pseudotaktowa	!
2c\	al-	2e\	al-	2g\	al-	2cc\	al-
=95-	=95-	=95-	=95-	=95-	=95-	=95-	=95-
1.B-	-tiſ-	1.f	-tiſ-	1.b-	-tiſ-	1.dd	-tiſ-
.	.	.	.	.	.	.	.
!	!	!	!	!	!	!LO:TX:t=P:problem:kreska pseudotaktowa	!
2F\	-si-	2f\	-si-	2a\	-si-	2cc\	-si-
=96-	=96-	=96-	=96-	=96-	=96-	=96-	=96-
!LO:TX:t=P:problem:kreska pseudotaktowa	!	!	!	!LO:TX:t=P:problem:kreska pseudotaktowa	!	!	!
1F,<	-m(us)	2f,\	-m(us)	1a	-m(us)	1cc	-m(us)
.	.	1c\	Je-	.	.	.	.
1F	Je-	.	.	1rb	.	1.a	Je-
.	.	1A/	-su	.	.	.	.
=97-	=97-	=97-	=97-	=97-	=97-	=97-	=97-
!LO:TX:t=P:problem:kreska pseudotaktowa	!	!	!	!	!	!	!
1D	-su	.	.	1f	Je-	.	.
.	.	2.d\	JE-	.	.	2a/	-su
2.G\	Chri-	.	.	1d	-su	1b-	X-
.	.	4c/	.	.	.	.	.
.	.	4B-/	.	.	.	.	.
!	!	!LO:TX:t=P:problem:kreska pseudotaktowa	!	!	!	!	!
4F/	.	4A/	.	.	.	.	.
=98-	=98-	=98-	=98-	=98-	=98-	=98-	=98-
!	!	!	!	!	!	!LO:TX:t=P:problem:kreska pseudotaktowa	!
4E/	.	2G/	.	2.g\	Chri-	1cc	-te
4D/	.	.	.	.	.	.	.
!LO:TX:t=P:problem:kreska pseudotaktowa	!	!	!	!	!	!	!
2C/	-ste	2.g\	.	.	.	.	.
.	.	.	.	4f\	.	.	.
2.c\	Je-	.	.	4e/	.	2r	.
.	.	4f\	.	4d/	.	.	.
!	!	!	!	!LO:TX:t=P:problem:kreska pseudotaktowa	!	!	!
!	!	!	!	!LO:SIC:v:t=custos f	!	!	!
.	.	4e\	.	2c/	.	1cc\	Je-
!LO:TX:t=P:problem:kreska pseudotaktowa	!	!	!	!	!	!	!
4B-\	.	4d\	.	.	.	.	.
!	!	!	!	!LO:LB:g=original	!	!	!
=99-	=99-	=99-	=99-	=99-	=99-	=99-	=99-
4A\	.	2c\	-SU	2.f\	.	.	.
4G\	.	.	.	.	.	.	.
!	!	!	!	!	!	!LO:TX:t=P:problem:kreska pseudotaktowa	!
4F/	.	2.f\	Chri-	.	.	2a/	.
4E/	.	.	.	4g\	.	.	.
2D/	-su	.	.	2a\	.	2dd\	-su
.	.	4e\	.	.	.	.	.
2A\	X-	2c\	.	2f\	.	1cc\	X-
=100-	=100-	=100-	=100-	=100-	=100-	=100-	=100-
!LO:TX:t=P:problem:kreska pseudotaktowa	!	!	!	!LO:TX:t=P:problem:kreska pseudotaktowa	!	!	!
1G	-te	1d	.	1g	-ste	.	.
.	.	.	.	.	.	2b-\	-te
!	!	!LO:TX:t=P:problem:kreska pseudotaktowa	!	!	!	!	!
2r	.	1c	-ste.	2rc	.	4cc/	.
.	.	.	.	.	.	4b-/	.
!LO:TX:t=P:problem:kreska pseudotaktowa	!	!	!	!	!	!	!
2F\	Cum	.	.	2c/	Cum	4a/	.
.	.	.	.	.	.	4g/	.
=101-	=101-	=101-	=101-	=101-	=101-	=101-	=101-
!	!	!	!	!	!	!LO:TX:t=P:problem:kreska pseudotaktowa	!
2F\	S(an)-	0r	.	2c/	S(an)-	1a	.
!LO:TX:t=P:problem:kreska pseudotaktowa	!	!	!	!	!	!	!
2F\	-cto	.	.	2c/	-cto	.	.
2B-\	Sp(i)-	.	.	2d/	Spi-	1r	.
2G\	-r(i)-	.	.	2e\	-ri-	.	.
=102-	=102-	=102-	=102-	=102-	=102-	=102-	=102-
!LO:TX:t=P:problem:kreska pseudotaktowa	!	!	!	!LO:TX:t=P:problem:kreska pseudotaktowa	!	!	!
1F	-tu.	2rA	.	1f	-tu	2r	.
.	.	2F/	Cum	.	.	2cc\	Cum
!LO:TX:t=P:problem:kreska pseudotaktowa	!	!	!	!	!	!	!
0r	.	2F/	S(an)-	2r	.	2cc\	San-
!	!	!	!	!	!	!LO:TX:t=P:problem:kreska pseudotaktowa	!
!	!	!	!	!	!	!LO:SIC:v:t=custos dd	!
*	*	*	*	*	*ij	*	*
.	.	2F/	-cto	2f\	cum	2cc\	-cto
!	!	!	!	!	!	!LO:LB:g=original	!
=103-	=103-	=103-	=103-	=103-	=103-	=103-	=103-
.	.	2B-/	Sp(i)-	2f\	S(an)-	2dd\	Spi-
!	!	!LO:TX:t=P:problem:kreska pseudotaktowa	!	!	!	!	!
.	.	2G/	-r(i-	2g\	-cto	2ee\	-ri-
2r	.	2F/	-t)u	1a	Spi-	2.ff\	-tu
*	*ij	*	*	*	*	*	*
!LO:TX:t=P:problem:kreska pseudotaktowa	!	!	!	!	!	!	!
2F\	cum	4r	.	.	.	.	.
.	.	4c/	Cum	.	.	8ee\L	.
.	.	.	.	.	.	8dd\J	.
=104-	=104-	=104-	=104-	=104-	=104-	=104-	=104-
2F\	S(an)-	2c/	S(an)-	2a\	-ri-	4cc/	.
.	.	.	.	.	.	4b-/	.
!	!	!LO:TX:t=P:problem:kreska pseudotaktowa	!	!	!	!	!
!LO:TX:t=P:problem:kreska pseudotaktowa	!	!LO:SIC:v:t=custos d	!	!LO:TX:t=P:problem:kreska pseudotaktowa	!	!	!
2F\	-cto	2c/	-cto	2f\	-tu	4a/	.
*	*	*	*	*	*Xij	*	*
.	.	.	.	.	.	4g/	.
!	!	!LO:LB:g=original	!	!	!	!	!
2B-\	Sp(i)-	2d\	Spi-	0r	.	2f/	Spi-
2G\	.	2e\	-ri-	.	.	2g/	-ri-
=105-	=105-	=105-	=105-	=105-	=105-	=105-	=105-
!	!	!	!	!	!	!LO:TX:t=P:problem:kreska pseudotaktowa	!
4F/	-r(i)-	2.f\	-i-	.	.	1a	-tu
4E/	.	.	.	.	.	.	.
4F/	.	.	.	.	.	.	.
4G/	.	8e\L	-tu	.	.	.	.
.	.	8d\J	.	.	.	.	.
!	!	!LO:TX:t=P:problem:kreska pseudotaktowa	!	!	!	!	!
2A,<\	-tu	1c	.	1e	in	2r	.
*	*Xij	*	*	*	*	*	*
1A\	in	.	.	.	.	1cc\	in
=106-	=106-	=106-	=106-	=106-	=106-	=106-	=106-
.	.	0r	.	1f	glo-	.	.
1B-\	glo-	.	.	.	.	1dd\	glo-
.	.	.	.	2d/	-ri-	.	.
!LO:TX:t=P:problem:kreska pseudotaktowa	!	!	!	!	!	!	!
!LO:SIC:v:t=custos c	!	!	!	!	!	!	!
2G\	-ri-	.	.	2.g\	-a	2b-\	-ri-
!LO:LB:g=original	!	!	!	!	!	!	!
=107-	=107-	=107-	=107-	=107-	=107-	=107-	=107-
!	!	!	!	!	!	!LO:TX:t=P:problem:kreska pseudotaktowa	!
2.c\	-a	2r	.	.	.	1cc	-a
.	.	.	.	4f\	.	.	.
.	.	1e\	in	4e/	.	.	.
4B-\	.	.	.	4d/	.	.	.
4A\	.	.	.	1c	De-	2r	.
4G\	.	.	.	.	.	.	.
*	*	*	*	*	*	*	*ij
1F\	De-	1f\	glo-	.	.	1a/	in
=108-	=108-	=108-	=108-	=108-	=108-	=108-	=108-
!	!	!	!	!LO:TX:t=P:problem:kreska pseudotaktowa	!	!	!
.	.	.	.	1d	-i	.	.
!	!	!LO:TX:t=P:problem:kreska pseudotaktowa	!	!	!	!	!
2.G\	-i	2d\	-ri-	.	.	1b-\	glo-
.	.	2.g\	-a	2B-/	Pa-	.	.
4F/	.	.	.	.	.	.	.
4E/	.	.	.	2.c/	.	2g/	-ri-
!LO:TX:t=P:problem:kreska pseudotaktowa	!	!	!	!	!	!	!
4D/	.	4f\	.	.	.	.	.
=109-	=109-	=109-	=109-	=109-	=109-	=109-	=109-
!	!	!	!	!	!	!LO:TX:t=P:problem:kreska pseudotaktowa	!
2C/	Pa-	4e\	.	.	.	1cc	-a
*	*	*	*	*	*	*	*Xij
.	.	4d\	.	4B-/	.	.	.
2.F/	.	4c/	.	4A/	.	.	.
.	.	4B-/	.	4G/	.	.	.
.	.	2c\	.	2F/	-tris	2a/	De-
4E/	.	.	.	.	.	.	.
4D/	.	1d\	De-	1f\	A-	1b-\	-i
4C/	.	.	.	.	.	.	.
=110-	=110-	=110-	=110-	=110-	=110-	=110-	=110-
2BB-/	.	.	.	.	.	.	.
!LO:TX:t=P:problem:kreska pseudotaktowa	!	!LO:TX:t=P:problem:kreska pseudotaktowa	!	!LO:TX:t=P:problem:kreska pseudotaktowa	!	!	!
2C/	.	2c\	-i	2e\	.	2g/	Pa-
2D/	-tris	2A/	Pa-	1.d	.	2f/	-tris
2BB-/	A-	2B-/	.	.	.	2.g/	A-
=111-	=111-	=111-	=111-	=111-	=111-	=111-	=111-
1D	.	2A/	-tris	.	.	.	.
.	.	.	.	.	.	4f/	.
.	.	4G/	.	2B-/	.	1f/	.
.	.	4F/	.	.	.	.	.
!	!	!	!	!LO:TX:t=P:problem:kreska pseudotaktowa	!	!	!
!LO:TX:t=P:problem:kreska pseudotaktowa	!	!	!	!LO:SIC:v:t=custos c	!	!	!
1C	-men.	1G	A-	1c	-men	.	.
!	!	!	!	!	!	!LO:TX:t=P:problem:kreska pseudotaktowa	!
.	.	.	.	.	.	2e/	.
!	!	!	!	!LO:LB:g=original	!	!	!
=112-	=112-	=112-	=112-	=112-	=112-	=112-	=112-
!	!	!LO:TX:t=P:problem:kreska pseudotaktowa	!	!	!	!	!
2r	.	1F	-men	2rc	.	2f,</	-men
1A\	in	.	.	2c/	in	1cc\	in
.	.	0r	.	1f	glo-	.	.
1B-\	glo-	.	.	.	.	1dd\	glo-
=113-	=113-	=113-	=113-	=113-	=113-	=113-	=113-
.	.	.	.	2d/	-ri-	.	.
!LO:TX:t=P:problem:kreska pseudotaktowa	!	!	!	!	!	!	!
2G\	-ri-	.	.	2.g\	-a	2b-\	-ri-
!	!	!	!	!	!	!LO:TX:t=P:problem:kreska pseudotaktowa	!
2.c\	-a	2r	.	.	.	1cc	-a
.	.	.	.	4f/	.	.	.
.	.	1e\	in	4e/	.	.	.
4B-\	.	.	.	4d/	.	.	.
=114-	=114-	=114-	=114-	=114-	=114-	=114-	=114-
!	!	!	!	!LO:TX:t=P:problem:kreska pseudotaktowa	!	!	!
4A\	.	.	.	1c	De-	2r	.
4G\	.	.	.	.	.	.	.
*	*	*	*	*	*	*	*ij
1F\	De-	1f\	glo-	.	.	1a/	in
.	.	.	.	1d	-i	.	.
2.G\	-i	2d\	-ri-	.	.	1b-\	glo-
=115-	=115-	=115-	=115-	=115-	=115-	=115-	=115-
.	.	2.g\	-a	2B-/	Pa-	.	.
4F/	.	.	.	.	.	.	.
!	!	!	!	!	!	!LO:TX:t=P:problem:kreska pseudotaktowa	!
4E/	.	.	.	2.c/	.	2g/	-ri-
!LO:TX:t=P:problem:kreska pseudotaktowa	!	!	!	!	!	!	!
4D/	.	4f\	.	.	.	.	.
2C/	.	4e\	De-	.	.	1cc,<	-a
*	*	*	*	*	*	*	*Xij
.	.	4d\	.	4B-/	.	.	.
2.F/	Pa-	4c/	.	4A/	.	.	.
!	!	!	!	!LO:TX:t=P:problem:kreska pseudotaktowa	!	!	!
.	.	4B-/	.	4G/	.	.	.
=116-	=116-	=116-	=116-	=116-	=116-	=116-	=116-
.	.	2c\	-i	2F/	-tris	2a/	De-
4E/	.	.	.	.	.	.	.
4D/	.	1d\	P(a-	1f\	A-	1b-\	-i
4C/	.	.	.	.	.	.	.
2BB-/	.	.	.	.	.	.	.
!	!	!LO:TX:t=P:problem:kreska pseudotaktowa	!	!LO:TX:t=P:problem:kreska pseudotaktowa	!	!	!
2C/	-tris	2c\	-t)ris	2e\	.	2g/	Pa-
=117-	=117-	=117-	=117-	=117-	=117-	=117-	=117-
2D/	A-	2A/	A-	1.d	.	2f,</	-tris
!LO:TX:t=P:problem:kreska pseudotaktowa	!	!	!	!	!	!	!
2BB-/	.	2B-/	.	.	.	2.g/	A-
1D	.	2A/	.	.	.	.	.
.	.	.	.	.	.	4f/	.
.	.	4G/	.	2B-/	.	1f/	.
.	.	4F/	.	.	.	.	.
=118-	=118-	=118-	=118-	=118-	=118-	=118-	=118-
1C	.	1G	.	1c	.	.	.
.	.	.	.	.	.	2e/	.
1Fl;	-men	1Al;	-men.	1cl;	-men.	1fl;	-men
==	==	==	==	==	==	==	==
*-	*-	*-	*-	*-	*-	*-	*-
!!!system-decoration: [g1]
!!!RDF**kern: > = above
!!!RDF**kern: < = below
!!!RDF**kern: l = terminal long
!!!ENC: Andrzej Kubiczek
!!!END: 2021-03-17
!!!ENC: Mateusz Solarz
!!!END: 2021-03-02
